file/john-deere.svg

<svg clip-rule="evenodd" fill-rule="evenodd" stroke-linejoin="round" stroke-miterlimit="1.41421" viewBox="0 0 560 400" xmlns="http://www.w3.org/2000/svg" xmlns:xlink="http://www.w3.org/1999/xlink"><radialGradient id="a" cx="0" cy="0" gradientTransform="matrix(-1.29794 -35.9697 -36.8711 1.33063 75.8057 30.268)" gradientUnits="userSpaceOnUse" r="1"><stop offset="0" stop-color="#5aad35"/><stop offset=".68" stop-color="#438e2f"/><stop offset="1" stop-color="#2c702a"/></radialGradient><g fill-rule="nonzero" transform="matrix(2.06865 0 0 2.06865 129.591 100)"><path d="m74.219 0c11.311 0 22.835 2.436 33.664 7.674 3.821 9.156 5.567 18.582 5.567 27.781 0 9.172-1.723 18.492-5.547 27.734-10.871 5.263-22.356 7.676-33.681 7.676-11.319 0-22.799-2.413-33.682-7.676-3.824-9.241-5.543-18.561-5.543-27.734 0-9.199 1.741-18.625 5.565-27.781 10.831-5.238 22.358-7.674 33.66-7.674" fill="#247218"/><path d="m42.911 60.984c-3.161-7.924-4.892-16.536-4.892-25.529 0-9.014 1.733-17.636 4.91-25.579 9.408-4.409 20.119-6.881 31.29-6.881 11.175 0 21.892 2.472 31.294 6.881 3.175 7.942 4.911 16.565 4.911 25.579 0 8.993-1.727 17.605-4.891 25.529-9.408 4.415-20.13 6.889-31.314 6.889-11.179 0-21.9-2.474-31.308-6.889" fill="#fcdf17"/><path d="m103.74 59.329c-1.978-3.255-4.634-5.884-4.662-5.909-.033-.016-.553-.177-.553-.177-5.637-1.733-9.332-3.035-10.966-3.881-2.247-1.168-4.609-4.002-4.869-4.32-2.635-.199-4.815-.157-6.912.097l-1.336.174c-2.548.328-5.178.676-7.755.262-1.717-.281-3.383-.827-5.149-1.402-2.721-.892-5.509-1.806-8.694-1.801h-.128l.055.112c.724 1.408 3.583 5.679 7.163 6.853.79.19 1.361.4 1.609.593 0 .009 1.37 2.796 1.744 3.55-2.228-1.011-9.118-4.515-14.676-11.279v-.01c0-.09-.144-1.406-.174-1.694 3.31-1.235 10.764-1.951 11.604-2.031l.061-.005.026-.067c.445-3.921 1.374-7.059 3.114-10.495.05-.104.08-.199.08-.281 0-.06-.017-.122-.042-.17-.098-.185-.337-.222-.347-.222 0 0-4.812-.84-5.072-.885-.028-.085-.506-1.554-.548-1.676 3.657-1.36 8.164-2.632 10.744-3.192.437-.697.559-1.075.559-1.53 0-.387-.186-.715-.559-.968-1.828-1.24-7.588-.494-13.416 1.741-.012-.023-.012-.028-.03-.053 1.21-.905 3.373-2.25 4.977-2.995l.062-.035-.019-.06c-.435-1.474-3.281-2.602-3.601-2.717.006-.05.011-.083.016-.122 2.894-.198 4.814 1.156 5.4 2.121l.03.048.058-.019c.371-.12 1.679-.535 3.094-.703l.082-.004-.022-.086c-.465-2.479-2.832-4.134-3.638-4.632.023-.04.03-.055.053-.084 2.793.216 5.375 2.622 5.956 4.656l.016.055.058.005c.75.026 1.66.11 2.268.213l.063.01.022-.053c.228-.534.339-1.104.339-1.69 0-1.831-1.035-3.795-2.307-5.036.025-.035.036-.068.068-.098 3.67 1.393 4.604 4.038 4.604 6.5 0 1.724-.457 3.365-.752 4.412l-.124.433s5.405-.652 5.77-.696c-.55.696-1.735 1.936-4.101 3.243 0-.013-2.439-.312-2.439-.312l-.064-.01-.021.063c-.164.504-1.591 5.014-1.599 8.329 0 1.229.348 2.182 1.034 2.84 1.222 1.176 3.247 1.241 4.662 1.186 6.017-.22 10.711.15 13.969 1.114l.193.052.03-.045c.202-.311.361-.889.361-1.654 0-1.452-.581-3.617-2.536-6.066.021-.017.021-.03.046-.049.324.179 5.601 3.177 6.306 7.702-.123.047-2.528 1.028-2.528 1.028l.077.079c2.23 2.335 3 5.156 3.618 7.415.491 1.79 1.077 2.934 1.855 3.605.901.778 4.316 2.408 5.341 2.886.852 1.212 2.317 3.482 3.38 5.239v-.003c2.307-6.848 3.487-13.985 3.487-21.272 0-8.237-1.502-16.278-4.44-23.926-9.093-4.107-19.275-6.289-29.499-6.289-10.225 0-20.395 2.182-29.491 6.289-2.941 7.648-4.442 15.69-4.442 23.926 0 8.216 1.499 16.24 4.425 23.885 9.097 4.112 19.279 6.285 29.509 6.285 10.235 0 20.416-2.173 29.512-6.285l.012-.012z" fill="url(#a)"/><g fill="#247218"><path d="m0 93.154s1.782.637 3.778.637c2.123 0 3.449-.291 4.19-1.038.614-.616.859-1.645.826-3.162v-10.095h3.143v10.532c-.046 4.663-2.313 6.653-7.589 6.653-2.561 0-4.348-.404-4.348-.404zm13.793-3.444c0 3.214 2.11 6.97 8.052 6.97 5.945 0 8.055-3.756 8.055-6.97 0-4.498-3.011-7.186-8.055-7.186-5.041 0-8.052 2.688-8.052 7.186zm106.435 6.655h-3.138v-13.52h8.87c3.054 0 4.873 1.624 4.873 4.339 0 1.628-.908 3.458-3.288 4.028l3.943 5.153v.001-.001h-3.793l-3.783-4.948h-3.684zm-43.523 0h-7.587v-16.885h7.587c6.01 0 9.604 3.207 9.604 8.564 0 3.843-2.517 8.321-9.604 8.321zm23.703-13.52v2.768h-9.357v2.61h7.238v2.765h-7.238v2.61h9.357v2.767h-12.493v-13.52zm-48.521 13.52h-3.136v-13.52h3.111l8.185 9.124v-9.124h3.141v13.52h-3.141l-8.16-9.216zm-16.99-8.142h8.164v-5.378h3.136v13.52h-3.136v-5.377h-8.164v5.377h-3.138v-13.52h3.138zm-13.052 5.697c-1.834 0-4.92-.567-4.92-4.354 0-2.716 1.794-4.275 4.92-4.275s4.914 1.559 4.914 4.275c0 3.787-3.076 4.354-4.914 4.354zm54.86-11.647h-4.437v11.308h4.437c2.407 0 6.446-.743 6.446-5.708 0-3.562-2.349-5.6-6.446-5.6zm49.425 3.34h-5.732v3.039l5.732.007c.651 0 1.736-.205 1.736-1.542 0-.958-.632-1.504-1.736-1.504z"/><path d="m91.051 93.598v-2.61h7.238v-2.765h-7.238v-2.61h9.357v-2.768h-12.493v13.52h12.493v-2.767z" transform="translate(14.589)"/><path d="m91.051 93.598v-2.61h7.238v-2.765h-7.238v-2.61h9.357v-2.768h-12.493v13.52h12.493v-2.767z" transform="translate(45.009)"/></g></g></svg>

<?xml version="1.0" encoding="UTF-8" standalone="no"?>
<!DOCTYPE svg PUBLIC "-//W3C//DTD SVG 1.1//EN" "http://www.w3.org/Graphics/SVG/1.1/DTD/svg11.dtd">
<svg width="100%" height="100%" viewBox="0 0 560 400" version="1.1" xmlns="http://www.w3.org/2000/svg" xmlns:xlink="http://www.w3.org/1999/xlink" xml:space="preserve" xmlns:serif="http://www.serif.com/" style="fill-rule:evenodd;clip-rule:evenodd;stroke-linejoin:round;stroke-miterlimit:1.41421;">
    <g transform="matrix(2.06865,0,0,2.06865,129.591,100)">
        <path d="M74.219,0C85.53,0 97.054,2.436 107.883,7.674C111.704,16.83 113.45,26.256 113.45,35.455C113.45,44.627 111.727,53.947 107.903,63.189C97.032,68.452 85.547,70.865 74.222,70.865C62.903,70.865 51.423,68.452 40.54,63.189C36.716,53.948 34.997,44.628 34.997,35.455C34.997,26.256 36.738,16.83 40.562,7.674C51.393,2.436 62.92,0 74.222,0" style="fill:rgb(36,114,24);fill-rule:nonzero;"/>
        <path d="M42.911,60.984C39.75,53.06 38.019,44.448 38.019,35.455C38.019,26.441 39.752,17.819 42.929,9.876C52.337,5.467 63.048,2.995 74.219,2.995C85.394,2.995 96.111,5.467 105.513,9.876C108.688,17.818 110.424,26.441 110.424,35.455C110.424,44.448 108.697,53.06 105.533,60.984C96.125,65.399 85.403,67.873 74.219,67.873C63.04,67.873 52.319,65.399 42.911,60.984" style="fill:rgb(252,223,23);fill-rule:nonzero;"/>
        <path d="M103.74,59.329C101.762,56.074 99.106,53.445 99.078,53.42C99.045,53.404 98.525,53.243 98.525,53.243C92.888,51.51 89.193,50.208 87.559,49.362C85.312,48.194 82.95,45.36 82.69,45.042C80.055,44.843 77.875,44.885 75.778,45.139L74.442,45.313C71.894,45.641 69.264,45.989 66.687,45.575C64.97,45.294 63.304,44.748 61.538,44.173C58.817,43.281 56.029,42.367 52.844,42.372L52.716,42.372L52.771,42.484C53.495,43.892 56.354,48.163 59.934,49.337C60.724,49.527 61.295,49.737 61.543,49.93C61.543,49.939 62.913,52.726 63.287,53.48C61.059,52.469 54.169,48.965 48.611,42.201L48.611,42.191C48.611,42.101 48.467,40.785 48.437,40.497C51.747,39.262 59.201,38.546 60.041,38.466L60.102,38.461L60.128,38.394C60.573,34.473 61.502,31.335 63.242,27.899C63.292,27.795 63.322,27.7 63.322,27.618C63.322,27.558 63.305,27.496 63.28,27.448C63.182,27.263 62.943,27.226 62.933,27.226C62.933,27.226 58.121,26.386 57.861,26.341C57.833,26.256 57.355,24.787 57.313,24.665C60.97,23.305 65.477,22.033 68.057,21.473C68.494,20.776 68.616,20.398 68.616,19.943C68.616,19.556 68.43,19.228 68.057,18.975C66.229,17.735 60.469,18.481 54.641,20.716C54.629,20.693 54.629,20.688 54.611,20.663C55.821,19.758 57.984,18.413 59.588,17.668L59.65,17.633L59.631,17.573C59.196,16.099 56.35,14.971 56.03,14.856C56.036,14.806 56.041,14.773 56.046,14.734C58.94,14.536 60.86,15.89 61.446,16.855L61.476,16.903L61.534,16.884C61.905,16.764 63.213,16.349 64.628,16.181L64.71,16.177L64.688,16.091C64.223,13.612 61.856,11.957 61.05,11.459C61.073,11.419 61.08,11.404 61.103,11.375C63.896,11.591 66.478,13.997 67.059,16.031L67.075,16.086L67.133,16.091C67.883,16.117 68.793,16.201 69.401,16.304L69.464,16.314L69.486,16.261C69.714,15.727 69.825,15.157 69.825,14.571C69.825,12.74 68.79,10.776 67.518,9.535C67.543,9.5 67.554,9.467 67.586,9.437C71.256,10.83 72.19,13.475 72.19,15.937C72.19,17.661 71.733,19.302 71.438,20.349L71.314,20.782C71.314,20.782 76.719,20.13 77.084,20.086C76.534,20.782 75.349,22.022 72.983,23.329C72.983,23.316 70.544,23.017 70.544,23.017L70.48,23.007L70.459,23.07C70.295,23.574 68.868,28.084 68.86,31.399C68.86,32.628 69.208,33.581 69.894,34.239C71.116,35.415 73.141,35.48 74.556,35.425C80.573,35.205 85.267,35.575 88.525,36.539L88.718,36.591L88.748,36.546C88.95,36.235 89.109,35.657 89.109,34.892C89.109,33.44 88.528,31.275 86.573,28.826C86.594,28.809 86.594,28.796 86.619,28.777C86.943,28.956 92.22,31.954 92.925,36.479C92.802,36.526 90.397,37.507 90.397,37.507L90.474,37.586C92.704,39.921 93.474,42.742 94.092,45.001C94.583,46.791 95.169,47.935 95.947,48.606C96.848,49.384 100.263,51.014 101.288,51.492C102.14,52.704 103.605,54.974 104.668,56.731L104.668,56.728C106.975,49.88 108.155,42.743 108.155,35.456C108.155,27.219 106.653,19.178 103.715,11.53C94.622,7.423 84.44,5.241 74.216,5.241C63.991,5.241 53.821,7.423 44.725,11.53C41.784,19.178 40.283,27.22 40.283,35.456C40.283,43.672 41.782,51.696 44.708,59.341C53.805,63.453 63.987,65.626 74.217,65.626C84.452,65.626 94.633,63.453 103.729,59.341L103.741,59.329L103.74,59.329Z" style="fill:url(#_Radial1);fill-rule:nonzero;"/>
        <g>
            <path d="M0,93.154C0,93.154 1.782,93.791 3.778,93.791C5.901,93.791 7.227,93.5 7.968,92.753C8.582,92.137 8.827,91.108 8.794,89.591L8.794,79.496L11.937,79.496L11.937,90.028C11.891,94.691 9.624,96.681 4.348,96.681C1.787,96.681 0,96.277 0,96.277L0,93.154L0,93.154ZM13.793,89.71C13.793,92.924 15.903,96.68 21.845,96.68C27.79,96.68 29.9,92.924 29.9,89.71C29.9,85.212 26.889,82.524 21.845,82.524C16.804,82.524 13.793,85.212 13.793,89.71ZM120.228,96.365L117.09,96.365L117.09,82.845L125.96,82.845C129.014,82.845 130.833,84.469 130.833,87.184C130.833,88.812 129.925,90.642 127.545,91.212L131.488,96.365L131.488,96.366L131.488,96.365L127.695,96.365L123.912,91.417L120.228,91.417L120.228,96.365ZM76.705,96.365L69.118,96.365L69.118,79.48L76.705,79.48L76.705,79.48C82.715,79.48 86.309,82.687 86.309,88.044C86.309,91.887 83.792,96.365 76.705,96.365ZM100.408,82.845L100.408,85.613L91.051,85.613L91.051,88.223L98.289,88.223L98.289,90.988L91.051,90.988L91.051,93.598L100.408,93.598L100.408,96.365L87.915,96.365L87.915,82.845L100.408,82.845ZM51.887,96.365L48.751,96.365L48.751,82.845L51.862,82.845L60.047,91.969L60.047,82.845L63.188,82.845L63.188,96.365L60.047,96.365L51.887,87.149L51.887,96.365ZM34.897,88.223L43.061,88.223L43.061,82.845L46.197,82.845L46.197,96.365L43.061,96.365L43.061,90.988L34.897,90.988L34.897,96.365L31.759,96.365L31.759,82.845L34.897,82.845L34.897,88.223ZM21.845,93.92C20.011,93.92 16.925,93.353 16.925,89.566C16.925,86.85 18.719,85.291 21.845,85.291C24.971,85.291 26.759,86.85 26.759,89.566C26.759,93.353 23.683,93.92 21.845,93.92ZM76.705,82.273L72.268,82.273L72.268,93.581L76.705,93.581C79.112,93.581 83.151,92.838 83.151,87.873C83.151,84.311 80.802,82.273 76.705,82.273ZM126.13,85.613L120.398,85.613L120.398,88.652L126.13,88.659L126.13,88.659C126.781,88.659 127.866,88.454 127.866,87.117C127.866,86.159 127.234,85.613 126.13,85.613Z" style="fill:rgb(36,114,24);fill-rule:nonzero;"/>
        </g>
        <g id="a" transform="matrix(1,0,0,1,14.589,2.3717e-07)">
            <path d="M91.051,93.598L91.051,90.988L98.289,90.988L98.289,88.223L91.051,88.223L91.051,85.613L100.408,85.613L100.408,82.845L87.915,82.845L87.915,96.365L100.408,96.365L100.408,93.598L91.051,93.598L91.051,93.598Z" style="fill:rgb(36,114,24);fill-rule:nonzero;"/>
        </g>
        <g id="a1" serif:id="a" transform="matrix(1,0,0,1,45.009,2.3717e-07)">
            <path d="M91.051,93.598L91.051,90.988L98.289,90.988L98.289,88.223L91.051,88.223L91.051,85.613L100.408,85.613L100.408,82.845L87.915,82.845L87.915,96.365L100.408,96.365L100.408,93.598L91.051,93.598L91.051,93.598Z" style="fill:rgb(36,114,24);fill-rule:nonzero;"/>
        </g>
    </g>
    <defs>
        <radialGradient id="_Radial1" cx="0" cy="0" r="1" gradientUnits="userSpaceOnUse" gradientTransform="matrix(-1.29794,-35.9697,-36.8711,1.33063,75.8057,30.268)"><stop offset="0" style="stop-color:rgb(90,173,53);stop-opacity:1"/><stop offset="0.68" style="stop-color:rgb(67,142,47);stop-opacity:1"/><stop offset="1" style="stop-color:rgb(44,112,42);stop-opacity:1"/></radialGradient>
    </defs>
</svg>
